format-size.svg

<svg fill="currentColor" viewBox="0 0 24 24"><path d="M2 4v3h5v12h3V7h5V4zm19 5h-9v3h3v7h3v-7h3z"/></svg>

<svg  viewBox="0 0 24 24" fill="currentColor"><path  d="M2 4V7H7V19H10V7H15V4H2M21 9H12V12H15V19H18V12H21V9Z"/></svg>
